!!!OTL: 1063. Raethsellied.
!!!ARE: Europa, Mitteleuropa, Deutschland, Wuerttemberg, Stuttgart
!!!SCT: E1063
!!!TXL: @@DE
!!!YEM: Copyright 1995, estate of Helmut Schaffrath.
**kern	**text
*ICvox	*
*M2/4	*
*k[f#]	*
*G:	*
!LO:TX:a:t=Mäßig.	!
!LO:TX:a:t=Mel. aus der Gegend von Stuttgart, bei Büſching 1816 u. Erk, Liederh. 153.	!
{8d	Es
=1	=1
8.g	ritt
16f#	ein-
8g	-mal
8a	ein
=2	=2
4g	Rit-
8d}	-ter
{8d	die
=3	=3
8.b	Welt
16a	berg-
8b	-auf,
8cc	berg-
=4	=4
4b	-ein;
8r}	.
{8a	da
=5	=5
8.b	fand
16a	er
8b	auf
8cc	der
=6	=6
4dd	Stra-
8cc}	-ße
{8b/	ein
=7	=7
8.a	hüb-
16g	-ſches
8a	Mäg-
8b/	-de-
=8	=8
4g	-lein.
8r}	.
{8g	Der
=9	=9
4dd	Rit-
4dd	-ter
=10	=10
4ee	grüßt
8.eeL}	das
{16ddJ	.
=11	=11
8.ccL	ſchö-
16b	.
8ccJ	.
8ee	-ne
=12	=12
4.dd}	Kind,
{8cc	ſteigt
=13	=13
4b	ab
8.bL	und
16ddJ	.
=14	=14
4dd	ſetʒt
8.ccL}	ſich
{16bJ	ʒu
=15	=15
4a	ihr
8.aL	ge-
16bJ	.
=16	=16
4g	-ſchwind.
8r}	.
{8g	Der
=17	=17
4dd	Rit-
4dd	-ter
=18	=18
4ee	grüßt
8.eeL}	das
{16ddJ	.
=19	=19
8.ccL	ſchö-
16b	.
8ccJ	.
8ee	-ne
=20	=20
4.dd}	Kind,
{8cc	ſteigt
=21	=21
4b	ab
8.bL	und
16ddJ	.
=22	=22
4dd	ſetʒt
8.ccL}	ſich
{16bJ	ʒu
=23	=23
4a	ihr
8.aL	ge-
16bJ	.
=24	=24
4g	-ſchwind.
8r}	.
==	==
!!!AGN: Raetsel - Lied
!!!ONB: ESAC (Essen Associative Code) Database: ERK3
!!!AMT: simple duple
!!!AIN: vox
!!!EED: Helmut Schaffrath
!!!EEV: 1.0
!!!GTL: Raethsel-, Wett- und Wunschlieder, nebst Luegenmaerchen.
!!!URL-scan: https://rosdok.uni-rostock.de/mcrviewer/recordIdentifier/rosdok_ppn745177999/iview2/phys_0010.iview2?x=0&y=194.5087741130992&scale=0.6479838709677419&rotation=0&layout=singlePageLayout
!!!ENC: Anna Maria Matuszewska
!!!EEV: 2024/12/23
*-	*-
